!!!COM: Mozart	
!!!OTL: 12 Variations on "Ah Vous dirais-je, Maman" for the Piano,	
!!!Variation: 3 b	
**kern	**kern
*M2/4	*M2/4
=-	=-
*^	*
4e	2G	(12ggL
.	.	12ff#)
.	.	12gg'J
4c	.	(12eeeL
.	.	12ccc)
.	.	12gg'J
=	=	=
4d	2G	(12ggL
.	.	12ee)
.	.	12ff'J
4B	.	(12dddL
.	.	12bb)
.	.	12ff'J
=	=	=
4c	2G	(12ffL
.	.	12dd#)
.	.	12ee'J
4e	.	(12cccL
.	.	12gg)
.	.	12ee'J
*v	*v	*
=	=
2G 2f	(12eeL
.	12cc#)
.	12dd'J
.	(12ffL
.	12dd)
.	12b'J
=	=
*^	*
4e	2G	(12ggL
.	.	12ff#)
.	.	12gg'J
4c#	.	(12eeeL
.	.	12aa)
.	.	12gg'J
=	=	=
4d	2G	(12ggL
.	.	12ee)
.	.	12ff'J
4B	.	(12dddL
.	.	12gg)
.	.	12ff'J
*v	*v	*
=	=
4G 4c	(12ffL
.	12dd#)
.	12ee'J
4F# 4A 4c	(12cccL
.	12aa)
.	12ee'J
=	=
*^	*
(8.eL	2G	(8.ggL
16cJk	.	16eeJk
4B)	.	4dd)
*v	*v	*
=	=
*-	*-
